X:1728
T:Bonnie Anne
R:reel
D:John McHugh & Barry Carroll: The Long Finger
Z:id:hn-reel-467
M:C|
K:D
e|:fded cAAB|cAdB cAAe|fded cAAB|cAGE D2de|
fded cAAB|cAdB cAGE|DEFG AddB|1 cAGE D3e:|2 cAGE D2 (3EFG||
|:Addc defg|~a3f g2 (3EFG|Addc defd|=cABG EFGE|
Addc defg|~a3f g2fg|afge fded|1 cAGE D2 (3EFG:|2 cAGE D3||


